X: 6718
T: Cha Teid Mi Choir' Odhar
R: slide
M: 12/8
K: Gmajor
D2|G3 A B2 B2 d2 D2|G3 A B2 B2 A2 D2|G3 A B2 A2 d2 D2|G2 B2 A2 G4 D2|
G3 A B2 A2 d2 D2|G3 A B2 B2 A2 d2|ef g2 d2 dc A2 G2|G2 B2 BA G6||

